X:1
T:Title
%%score { 1 | 2 }
L:1/8
M:6/8
K:C
V:1 treble nm="Grand Piano"
V:2 bass 
V:1
 z3 z2[Q:1/4=81] [EG] | [EG][CE][EG] [FA][Fc][FA] | [FA] [EG]2- [EG]2 [EG] | A>^GA =GAG | %4
 [EG]3- [EG]2 [EG] | [EG][G,CE][CEG] [B,FB][B,FA][B,G] | [Gd] [Gc]2- [Gc]2 [Gc] | %7
 [GB]<.[Gd][GB] A>GA |[M:5/8] G-G- G3 |[M:1/8] G |[M:3/4] [Af]>[Ge] [Fd][Fd] [E^c][Fd] | %11
 [Ge][Ec]- [Ec]3 [Ec] | c>B c[^Fd] [FA][Fd] | [Fd]4- [Fd][B,FG] | %14
 [CEG][G,CE] [CEG][B,FB] [B,FA][B,G] | [Gd][Gc]- [Gc]3 d | %16
 e[Q:1/4=71]G ed Gd[Q:1/4=80][Q:1/4=78][Q:1/4=77][Q:1/4=76][Q:1/4=75][Q:1/4=73][Q:1/4=72][Q:1/4=70][Q:1/4=68][Q:1/4=67][Q:1/4=66][Q:1/4=65][Q:1/4=63][Q:1/4=62] | %17
[M:5/8] [Ec]-[Ec]- [Ec]3 |] %18
V:2
 z3 z2 [C,C] | [C,C][C,G,][C,C] [C,C][C,A,][C,C] | [C,C] [C,C]2- [C,C]2 [C,C] | %3
 [F,CF]>[F,CF][F,CF] [G,B,F][G,DF][G,B,F] | [C,C]3- [C,C]2 [C,C] | [C,C]C,C, D,D,D, | %6
 [E,C] [E,C]2- [E,C]2 [E,C] | [D,D]<.[D,B,][D,D] [D,CD]>[D,B,D][D,CD] | %8
[M:5/8] [G,B,D]-[G,B,D]- [G,B,D]3 |[M:1/8] G, | %10
[M:3/4] [G,,G,]>[G,,G,] [G,,G,][G,,G,] [G,,G,][G,,G,] | [C,G,][C,C]- [C,C]3 [C,C] | %12
 [A,EA]>[A,E^G] [A,EA][K:bass][D,C] [D,C][D,C] | [G,B,]4- [G,B,]G, | C,C, C,D, D,D, | %15
 [E,C][E,C]- [E,C]3[K:treble] [F,A,F] | [G,CG][G,CE] [G,CG][G,B,F] [G,B,F][G,B,F] | %17
[M:5/8][K:bass] [C,C]-[C,C]- [C,C]3 |] %18

